icons-common/simistor.svg

<svg height="1em" width="auto" viewBox="0 0 105 105" fill="currentColor" xmlns="http://www.w3.org/2000/svg">
    <path d="M83.096 41.3909H22.5778C20.2453 41.3909 18.3369 39.4493 18.3369 37.0763C18.3369 34.7033 20.2453 32.7617 22.5778 32.7617H83.096C85.4285 32.7617 87.3369 34.7033 87.3369 37.0763C87.3369 39.4493 85.4285 41.3909 83.096 41.3909Z"
          />
    <path d="M52.8156 41.3912C50.4831 41.3912 48.5747 39.4496 48.5747 37.0766V17.0138C48.5747 14.6408 50.4831 12.6992 52.8156 12.6992C55.1482 12.6992 57.0566 14.6408 57.0566 17.0138V37.0766C57.0566 39.4496 55.1482 41.3912 52.8156 41.3912Z"
          />
    <path d="M83.096 71.636H22.5778C20.2453 71.636 18.3369 69.6944 18.3369 67.3214C18.3369 64.9484 20.2453 63.0068 22.5778 63.0068H83.096C85.4285 63.0068 87.3369 64.9484 87.3369 67.3214C87.3369 69.6944 85.4285 71.636 83.096 71.636Z"
          />
    <path d="M52.8156 91.6988C50.4831 91.6988 48.5747 89.7572 48.5747 87.3842V67.3214C48.5747 64.9484 50.4831 63.0068 52.8156 63.0068C55.1482 63.0068 57.0566 64.9484 57.0566 67.3214V87.3842C57.0566 89.7572 55.1482 91.6988 52.8156 91.6988Z"
          />
    <path d="M22.5777 71.6363C21.9839 71.6363 21.3478 71.5069 20.7965 71.248C18.676 70.2556 17.7854 67.6669 18.7608 65.5096L32.6711 35.2212C33.3496 33.7111 34.8764 32.7188 36.5303 32.7188C38.1843 32.7188 39.6686 33.668 40.3896 35.2212L53.9182 64.5604C54.8936 66.7177 54.003 69.2633 51.8825 70.2988C49.762 71.3343 47.2599 70.3851 46.2421 68.2278L36.5727 47.2157L26.4369 69.177C25.7159 70.7302 24.1892 71.6794 22.5777 71.6794V71.6363Z"
          />
    <path d="M69.1433 71.6367C67.4893 71.6367 66.005 70.6875 65.284 69.1342L51.7554 39.7951C50.78 37.6378 51.6706 35.0922 53.7911 34.0567C55.9116 33.0212 58.4561 33.9704 59.4315 36.1277L69.1009 57.1397L79.1943 35.2216C80.1697 33.0643 82.7143 32.1151 84.8347 33.1506C86.9552 34.143 87.8458 36.7317 86.8704 38.889L72.9177 69.1342C72.2391 70.6444 70.7124 71.6367 69.0584 71.6367H69.1433Z"
          />
</svg>

<svg xmlns="http://www.w3.org/2000/svg" width="auto" height="1em" fill="currentColor" viewBox="0 0 105 105">
    <path d="M83.096 41.39H22.578c-2.333 0-4.241-1.94-4.241-4.314s1.908-4.314 4.24-4.314h60.519c2.332 0 4.24 1.941 4.24 4.314s-1.907 4.315-4.24 4.315"/>
    <path d="M52.816 41.391c-2.333 0-4.241-1.941-4.241-4.314V17.014c0-2.373 1.908-4.315 4.24-4.315s4.242 1.942 4.242 4.315v20.063c0 2.373-1.909 4.314-4.241 4.314m30.28 30.245H22.578c-2.333 0-4.241-1.942-4.241-4.315s1.908-4.314 4.24-4.314h60.519c2.332 0 4.24 1.941 4.24 4.314s-1.907 4.315-4.24 4.315"/>
    <path d="M52.816 91.699c-2.333 0-4.241-1.942-4.241-4.315V67.321c0-2.373 1.908-4.314 4.24-4.314s4.242 1.941 4.242 4.314v20.063c0 2.373-1.909 4.315-4.241 4.315"/>
    <path d="M22.578 71.636c-.594 0-1.23-.13-1.781-.388-2.121-.992-3.012-3.581-2.036-5.738L32.67 35.22a4.26 4.26 0 0 1 3.86-2.502c1.653 0 3.138.949 3.859 2.502l13.528 29.34c.976 2.157.085 4.702-2.035 5.738-2.121 1.035-4.623.086-5.64-2.071l-9.67-21.012-10.136 21.961c-.721 1.553-2.248 2.502-3.86 2.502zm46.565.001c-1.654 0-3.138-.95-3.859-2.503L51.755 39.795c-.975-2.157-.084-4.703 2.036-5.738s4.665-.087 5.64 2.07l9.67 21.013 10.093-21.918c.976-2.158 3.52-3.107 5.64-2.071 2.121.992 3.012 3.58 2.036 5.738L72.918 69.134a4.26 4.26 0 0 1-3.86 2.503z"/>
</svg>
